X:710
T: ES GIENG EIN JUNGFRAU ZARTE
N: E2154
O: Europa, Mitteleuropa, Deutschland, Schlesien
R: geistlich, Moral - Lied, Tod
M: 3/4
L: 1/8
K: G
D2 | DGG2A2 | GBd2
A2 | BdB2A2 | G4
D2 | DGG2A2 | GBd2
A2 | BdB2A2 | G4
A2 | BdB2A2 | G2A2
D2 | DGG2A2 | GBd2
A2 | BdB2A2 | G4

@@@ Tune index: 5394
